X:1
T:Symphony No. 6 in B Minor - 4th Movement
T:P. Tchaikovsky
T:Arranged for piano by H. Pachulski
T:Pathétique
%%score { ( 1 4 ) | ( 2 3 5 ) }
L:1/8
Q:1/4=54
M:3/4
K:D
V:1 treble nm="Piano"
V:4 treble 
V:2 bass 
V:3 bass 
V:5 bass 
V:1
"^Adagio lamentoso" [^GBf]2 [F^Ae][^EGd]!>(! [Ec]>!mf![EB]!>)! | [=Ec]4- [Ec] z | %2
!f! [^GBf]2 [F^Ae][^EGd]!>(! [Ec]>!mf![EB]!>)! |!mf! d!mp!c-!p! c2- c z | %4
 [B,G]3 [B,EG] [B,EG]>[A,EA] | [A,F]4 z2 |!mp! [DB]3 [D^GB] [DGB]>[CGc] | [CA]4 z2 | %8
!mf! c2 B [EBe] BA | e2 ^d [^Gd^g] dc | ^g2 f [Bfgb] f^e |!ff! c'2!>(! b>!f!a ^g!mf!a!>)! | %12
 ^gf ^e>!>(!f =e!mp!d!>)! |!mf!!>(! cd c!>)!B!mp! AB | AG FG!>(! FE | %15
[Q:1/4=69]"^Andante" D!>)!E!p! D!>(!C{/DC} ^B,C!>)! |!pp!!<(! D>!<)!!p!C!mp! E4 |!pp! E4- E z | %18
 z2 z/!p! [B,E]/[CG]/[EA]/ [D=FB]/[EGc]/[F^Gd]/[=G^Ae]/ | %19
!f![Q:1/4=60]"^Adagio poco meno che prima" [^GBf]2 [^F^Ae][^EGd] [Ec]>[EB] |!mf! [=Ec]4- [Ec] z | %21
!f! [^GBf]2 [F^Ae][^EGd] [Ec]>[EB] |!mf! dc-!>(! c2- c!>)! z | [B,G]3 [B,EG] [B,EG]>[A,EA] | %24
 [A,F]4- [A,F] z |[K:bass]!pp! D2 C [G,CE] [G,CE]>[F,CF] | C2 B,4 | %27
 B,2!<(! ^A, [E,A,C] [E,A,C]>[E,A,D] | =A,2 G,7/2!<)! F,/ |!mf! F,2 E,7/2 D,/ | D,2 C,7/2 B,,/ | %31
 B,,>!mf!A,, A,,>!mp!G,, [B,,G,]2- | [B,,G,]6 | G,6- | G,6- | G,4- G, z | %36
[K:treble][Q:1/4=76]"^Andante" z6 | z2 z2!p! [DFd]2 | [Dd]2 [Cc]2 [B,CB]2 | [A,DA]4 [DAd]2 | %40
 [Dd]2 [Cc]2 [B,CB]2 | [A,DA]4!p! [F=cf]2 | [Ff]2 [Ee]2!mp! [Geg]2 | [Geg]2 [Ff]2!mf! [ABa]2 | %44
 [Aa]2 [Gg]2!mp! [B,B]2 |[Q:1/4=70]"^ritenuto"!>(! [Ee]4!>)!!p![Q:1/4=66] [Dd]2 | %46
[Q:1/4=76]"^Tempo primo" [DGd]2!p! [Cc]2 [=B,D=B]2 | D2!p! C2 [Dd]2 | %48
!p! [DGd]2!p! [Cc]2!p! [B,B]2 | D2 C2 [Dd]2 |!p! [^D^d]2!p! [Ee]2!p! [Ee]2 | %51
!mp! [^E^e]2!mp! [Ff]2!mp! [Ff]2 |!mf! [Ff]2!mf! [Gg]2!mf! [Gg]2 | %53
[Q:1/4=68]"^ritenuto"!>(! [^G^g]2 [Aa]2!>)![Q:1/4=64] [dfd']2 |!mp![Q:1/4=76]"^Tempo primo" g4 x2 | %55
 [Ada]4!p! [dad']2 | g4 x2 | [Ada]4 [f=c'f']2 | b4!mp! x2 | [ge'g']2 [ff']2!mf! [aba']2 | %60
 [aba']2 [gbg']2 [Bb]2 |[Q:1/4=68]"^ritenuto" b2 _b2[Q:1/4=64]!f! [dd']2 | %62
[Q:1/4=76]"^Tempo primo"!f! [dgd']2!f! [cgc']2!f! [Bdb]2 | %63
!f! (3z!mf! [Aa][Aa]!f! (3z!mf! [Aa][Aa]!f! [dad']2 | [dgd']2!mf! [cgc']2!mf! [Bdb]2 | %65
!mf! (3z!mp! [Aa][Aa] (3z!mp! [Aa][Aa]!mf! [dad']2 |!mf! [^d^d']2!mf! [ee']2!mf! [ee']2 | %67
!mf! [^e^e']2!mf! [ff']2!mf! [ff']2 |!mf! [ff']2!mf! [gg']2!mf! [gg']2 | %69
!mp!!<(! [^g^g']2!mf! [aa']2!f! [^a^a']2!<)! |!ff![Q:1/4=96]"^Più mosso" [bd'f'b']6- | %71
 [bd'f'b'][aa'] [gg'][ff'] [ee'][dd'] | [g=c'e'g']6- | [gc'e'g'][ff'] [ee'][dd'] [=c=c'][Bb] | %74
 [eg=c'e']6- | [egc'e'][dd'] [=c=c'][Bb] [Aa][Gg] | %76
 (3[=cg=c'][Bb][Aa] (3[Gg][=F=f][Ee] (3[Aea][Gg][Ff] | (3ed=c [Geg]/=f/e/d/ c/B/A/G/ | %78
[Q:1/4=124]"^Vivace" [Ee]/d/=c/B/ A/G/=F/E/ (6:4:6c/B/A/G/F/E/ | %79
 (6:4:6A/G/=F/E/D/=C/ (6:4:6E/D/C/B,/A,/G,/[K:bass] (7:4:7C/B,/A,/G,/=F,/E,/D,/ | %80
 =C,[K:treble] [EG=ce] z2[Q:1/4=60] !fermata!z2 |[Q:1/4=76] z2 z2!ff! [Gg]2 | ^c6 | %83
 [Dd]2[Q:1/4=38] !fermata!z2!f![Q:1/4=76] [Dd]2 | [Dd]2 [Cc]2 [B,B]2 | %85
 [^A,^A]2[Q:1/4=38] !fermata!z2[Q:1/4=76] z [=CFA] | [B,G]2 z2 z!p! [B,EG] | [A,F]2 z2 [F,B,DF]2- | %88
 [F,B,DF]2- [F,B,DF]/!<(![DF]/[EG]/[CE^A]/ [DB]/[EGc]/[DFd]/!<)![GAe]/ | %89
!ff![Q:1/4=60]"^Andante non tanto" [^GBf]2 [^F^Ae][^EGd] [Ec]>[EB] |!f! [=Ec]4- [Ec] z | %91
 [^GBf]2 [F^Ae][^EGd] [Ec]>[EB] |!f! dc-!>(! c2- c!>)! z |!p! [B,G]3 [B,EG] [B,EG]>[A,EA] | %94
 [A,F]4- [A,F] z |[K:bass] D2 C [G,CE] [G,CE]>[F,CF] | C2!p!!<(! B,7/2!mp! A,/!<)! | %97
 [B,D]4[K:treble] [B,E]2 | F4 z2 |!f! [G,G]4 x2 | [Cc]6- | [Cc]4- [Cc] z | %102
 z!mf! (3C/D/E/!<(! (3[CF]/[DG]/[^D^G]/(3[EA]/[^E^A]/[FB]/ (3[=G=c]/[^G^c]/[=Ad]/(3[^A^d]/[Be]/!<)![=A=c=f]/ | %103
!ff! [^GBf]2 [^F^Ae][^EGd] [Ec]>[EB] |!f! [=Ec]4- [Ec] z | %105
!ff! [^GBf]2!>(! [F^Ae][^EGd] [Ec]>[EB]!>)! |!f! d!>(!c- c2- c z!>)! | [GBg]2 f>e dc | %108
"^stringendo" [Ada]2 d2 e^d | [=ce=c']2 b>a gf |!mf! [dgd']2 g2 a^g |!f! b2 x2 a2 | x2!ff! d'2 x2 | %113
!8va(! ^c'2 [ac']2 [c'e']2 | d'2!fff! e'2 d'2 |[Q:1/4=88]"^Moderato assai" [b=c'e'b']4 [ac'e'a']2 | %116
 [e^c'e']2 d'2 a2 | [gad'g']4 [=fad'=f']2!8va)! | [^c_b^c']2 a2 g2 | [e^f=be']4 [dfbd']2 | %120
 [^Ag^a]2 f2 [eg]2 |!fff! [cfc']4 [Bdfb]2 | [Bc]2 d2 [B^d]2 | [Aea]4 B2 | %124
[Q:1/4=84]"_ritenuto" [Ee][Dd] [Cc][Dd] [Cc][B,B] | %125
[Q:1/4=80]"^Andante" [B,F] z F,2 (3[CF]/[D^G]/[E^A]/[=FB]/4[_Gc]/4[^Gd]/4[=GAe]/4 | %126
 [^GBf]2 [^F^Ae][^E=Gd] [=EFc][D^EB] | dc F,2 (3[CF]/[D^G]/[E^A]/[=FB]/4[_Gc]/4[^Gd]/4[=GAe]/4 | %128
 [^GBf]2 [^F^Ae][^E=Gd] [=EFc][D^EB] | dc F,2 (3[CF]/[D^G]/[E^A]/[=FB]/4[_Gc]/4[^Gd]/4[=GAe]/4 | %130
 [^CEB]2 [=C^DA][^A,^CG] [^G,B,F][=G,A,E] | %131
 GF F,2 (3[CF]/[D^G]/[E^A]/[=FB]/4[_Gc]/4[^Gd]/4[=GAe]/4 | %132
 [^CEB]2 [=C^DA][^A,^CG] [^G,B,F][=G,A,E] | GF F,4 | FE F,4 | [CE]D F,4 | %136
 z2[K:bass]!p!!<(! [B,D]4!<)! |!mp!!>(! [B,D]6!>)! | [A,C] z!<(! [A,=C]4!<)! | %139
!mp!!>(! [A,=C]6!>)! | [G,B,] z [G,B,]4 |!p! [G,B,]6 | [F,^A,]4- [F,A,] z | [D,B,]4- [D,B,] z | %144
[Q:1/4=72]"^quasi adagio" [C,G,]4- [C,G,] z | [C,F,]4- [C,F,] z | %146
[K:treble][Q:1/4=76]"^Andante giusto" z2 z2!f! !arpeggio![F,DB]2 |!ff! B2!f! A2!mf! [^CEG]2 | %148
!ff! [DF]4!mf! [B,DB]2 |!ff! B2!f! A2!mf! [^CEG]2 |!ff! [DF]4!mf! [DF]2 | %151
[K:bass]!ff! F2!f! E2!mf! [B,D]2 |!ff! D2!f! C2!mf! B,2 |!ff! B,2!f! =A,2!mf! G,2 | %154
!mf! F,2- F, z [B,,D,B,]2 |!>(! B,2!>)! A,2!<(! [^C,E,G,]2!<)! | [D,F,]4!mp!!<(! [B,,D,B,]2!<)! | %157
 B,2 A,2!mp!!<(! [^C,E,G,]2!<)! | [C,F,]4 [D,F,]2 | F,2!p! E,2 D,2 | D,2 C,2 B,,2 | %161
 B,,2 =A,,2 G,,2 |!p!!<(! F,,6!<)! |!>(! [G,,B,,]6!>)! | F,,6 | [G,,B,,]6 | F,,6- | %167
[Q:1/4=68]"^ritenuto" F,,6-[Q:1/4=60] | F,,6- | F,,6- | F,,4- F,, z |] %171
V:2
!f! D2 CB,!mf! [^G,B,]>!mf![=G,B,] | z2!p! F4 | D2 CB,!mf! [^G,B,]>[=G,B,] | z2 F4 | %4
!p! [D,,D,]3 [D,,D,] [D,,D,]>[C,,C,] | [D,,D,]4 z2 | [F,,F,]3 [F,,F,] [F,,F,]>[^E,,^E,] | %7
 [F,,F,]4 C2 | C2 B, [^G,B,D] [A,C]2 |[K:treble] [CF]3 [^B,^DF] [CE]2 |!f! [EA]3 [DF^G] [CG]2 | %11
 c2!f! B>A!mf! ^GA |!mf! ^GF!f! ^E>F!mp! =ED |[K:bass] CD CB, [A,B,]2 | %14
 A,G, [D,^F,B,]2 [C,G,B,] z | [E,G,B,]6- | [E,G,B,]4[K:treble]!p!!>(! [GB]2-!>)! | [GB]4- [GB] z | %18
[K:bass] z2 z/!p! [C,G,]/!<(![E,B,]/[G,C]/ ^G,/^A,/B,/!<)!C/ |!f! D2 CB, [^G,B,]>[=G,B,] | %20
 z2!mp! F4 | D2 CB, [^G,B,]>[=G,B,] | z2!mp! F4 |!p! [D,,D,]3 [D,,D,] [D,,D,]>[C,,C,] | %24
!>(! [D,,D,]4-!>)! [D,,D,] z | [B,,,B,,]3 [B,,,B,,] [B,,,B,,]>[^A,,,^A,,] | %26
 [B,,,B,,]4- [B,,,B,,] z |!pp! [G,,,G,,]3!p! [G,,,G,,] [G,,,G,,]>[F,,,F,,] | %28
!mp! [G,,,G,,]4- [G,,,G,,] z | [E,,,E,,]6- |!f! [E,,,E,,]4- [E,,,E,,] z | z2"^dimin." z2 G,,>F,, | %32
 F,,>E,, E,,>!p!D,, D,,>C,, |!p! C,,2 D,,/C,,/^B,,,/C,,/ E,,>D,, | C,,6- |!pp! C,,4- C,, z | %36
!pp! (3z"_con pedale"!ped! [A,,A,][A,,A,]- (3[A,,A,][A,,A,][A,,A,]- (3[A,,A,][A,,A,][A,,A,]- | %37
 (3[A,,A,][A,,A,][A,,A,]- (3[A,,A,][A,,A,][A,,A,]!ped-up! (3z [A,,A,][A,,A,] | %38
 (3z [A,,A,][A,,A,]- (3[A,,A,][A,,A,][A,,A,] (3z [A,,A,][A,,A,] | %39
 (3z A,,A,, (3z A,,A,, (3z [A,,A,][A,,A,] | %40
 (3z [A,,A,][A,,A,]- (3[A,,A,][A,,A,][A,,A,] (3z [A,,A,][A,,A,] | %41
 (3z A,,A,, (3z A,,A,,!pp! (3z [A,,A,][A,,A,] | %42
"^crescendo" (3z [A,,A,][A,,A,] (3z [G,,G,][G,,G,]!p! (3z [B,,B,][B,,B,] | %43
 (3z [B,,B,][B,,B,] (3z [B,,B,][B,,B,]!mp! (3z [^D,^D][D,D] | %44
 (3z [^D,^D][D,D] (3[D,D][E,E][E,E] (3z!p! [_E,_E][=D,=D] | %45
 (3z [D,D][D,D]!pp! (3[D,D][C,C][C,C] (3z A,A, |!p! (3z!pp! A,A,- (3A,!pp!A,A,!p! (3z!pp! ^G,G, | %47
!p! D,2 C,2!p! (3z!pp! A,A, | (3z A,A,- (3A,A,A, (3z ^G,G, |!p! D,2!p! C,2!p! (3z!pp! A,A, | %50
"^crescendo" F,2 E,2 D,2 | ^G,2 F,2 E,2 | =A,2 =G,2 =F,2 |!f! B,2 A,G, (3z!p! [A,,A,][A,,A,] | %54
!p! (3z [A,,A,][A,,A,]- (3[A,,A,][A,,A,][A,,A,] (3z [A,,A,][A,,A,] | %55
 (3z [A,,A,][A,,A,] (3z [A,,A,][A,,A,]!pp! (3z [A,,A,][A,,A,] | %56
 (3z [A,,A,][A,,A,]- (3[A,,A,][A,,A,][A,,A,] (3z [A,,A,][A,,A,] | %57
 (3z [A,,A,][A,,A,] (3z [A,,A,][A,,A,] (3z [A,,A,][A,,A,] | %58
"^crescendo" (3z [A,,A,][A,,A,] (3z [G,,G,][G,,G,]!p! (3z [B,,B,][B,,B,] | %59
 (3z [B,,B,][B,,B,] (3z [B,,B,][B,,B,]!mp! (3z [^D,^D][D,D] | %60
 (3z [^D,^D][D,D]- (3[D,D][E,E][E,E] (3z [_E,_E][=D,=D] | %61
 (3z [D,D][D,D] (3[D,D][C,C][C,C] (3z A,A, | (3z!mf! A,A, (3A,A,A, (3z ^G,G, | %63
 (3z A,A, (3z A,A, (3z A,A, | (3z A,A, (3A,A,A, (3z ^G,G, | (3z A,A,!mf! (3z A,A, (3z A,A, | %66
 (3z B,B, (3z!mp! B,B, (3z B,B, | (3z CC (3z CC (3z CC | (3z DD (3z DD (3z DD | %69
 (3z EE (3z EE (3z EE | %70
!ped! (3z [F,B,DF][F,B,DF]- (3[F,B,DF][F,B,DF][F,B,DF]- (3[F,B,DF][F,B,DF][F,B,DF]- | %71
 [F,B,DF]!ped-up!A GF ED | %72
!ped! (3z [G,=CEG][G,CEG]- (3[G,CEG][G,CEG][G,CEG]- (3[G,CEG][G,CEG][G,CEG]- | %73
 [G,CEG]!ped-up!F ED =CB, | %74
!ped! (3z [E,G,=C][E,G,C]- (3[E,G,C][E,G,C][E,G,C]- (3[E,G,C][E,G,C][E,G,-C-] | %75
 [G,C]!ped-up!D =CB, A,G, |!ped! !arpeggio![G,,E,=C] z z2!ped-up!!ped! [=C,E,C] z!ped-up! | %77
!ped! (3ED=C!ped-up!!ped! [E,C]/=F/E/D/ C/B,/A,/G,/!ped-up! | %78
!ped! [G,=C]/D/C/B,/ A,/G,/=F,/E,/!ped-up!!ped! (6:4:6C/B,/A,/G,/F,/E,/!ped-up! | %79
!ped! (6:4:6A,/G,/=F,/E,/D,/=C,/!ped-up!!ped! (6:4:6E,/D,/C,/B,,/A,,/G,,/!ped-up!!ped! (7:4:7C,/B,,/A,,/G,,/=F,,/E,,/D,,/ | %80
!fff! =C,,!ped-up!!ped! [=C,G,=C] z2!ped-up! !fermata!z2 | z6 | E,2 F,2 G,2 | F,2 !fermata!z2 z2 | %84
 B,,2 C,2 D,2 | C,2 !fermata!z2 z!mf! [^D,,^D,] | [E,,E,]2 z2 z [C,,C,] | %87
 [D,,D,]2 z2!p! [D,,D,]2- | [D,,D,]2- [D,,D,]/[D,B,]/[E,^A,]/F,/ [G,B,]/A,/B,/C/ | %89
 D2 CB, [^G,B,]>[=G,B,] | z2!mf! F4 | D2 CB, [^G,B,]>[=G,B,] | z2!mp! F4 | %93
"^piano" [D,,D,]3 [D,,D,] [D,,D,]>[C,,C,] | [D,,D,]4- [D,,D,] z | %95
!pp! [B,,,B,,]3 [B,,,B,,] [B,,,B,,]>[^A,,,^A,,] | [B,,,B,,]4- [B,,,B,,] z |!mf! A,2 G,F, E,>D, | %98
 D,4 C,>=C, | =C,4 C,>B,, | G,2 F,4- | F,4- F, z | %102
 z [E,,^A,,] (3[E,^A,]/[^E,B,]/[F,=C]/(3[G,^C]/[^G,D]/[=A,^D]/ (3[^A,E]/[B,^E]/[=CF]/(3[^CG]/[=D^G]/_E/ | %103
 D2 CB, [^G,B,]>[=G,B,] | z2 F4 | D2 CB, [^G,B,]>[=G,B,] | z2 F3 z | %107
!mf!!ped! FE!ped-up! [D,D][C,C] [E,A,]2 | [G,A,][F,A,] A,2 [B,,B,]2 | %109
"^cre" BA [G,G]"^-"[F,F] [A,D]2 |"^scen" [=CD][B,D]"^-" D2"^-" [E,E]2 | %111
"^do" [^G,B,]2 [=G,^A,][^G,B,] ^DE | B,[A,=C] D2 ^CD | [_B,,E,C]2 [A,,E,C]2 _B,A, | A,2 ^G,2 E,,2 | %115
 ^F,,2 ^G,,2 A,,2 | ^A,,2 B,,2 C,2 | D,2 E,2 =F,2 | G,2 A,2 ^A,2 | B,2 C2 D2 | %120
 [G,^A,]2 [F,A,]2 [E,G,C]2 | [D,F,^G,]2 [D,F,^A,]2 [D,F,B,]2 | [A,B,C]2 [A,B,D]2 [A,B,^D]2 | %123
 [B,E]2 [B,F]2 [B,E]2 | !arpeggio![D,B,]4 [D,G,]2 | %125
 [F,,D,F,]!ped!F,,,/4F,,/4F,,,/4F,,/4 F,,,/4F,,/4F,,,/4F,,/4F,,,!ped-up! (3[E,^A,]/[^E,B,]/[F,D]/[^G,D]/4[A,E]/4[B,=F]/4C/4 | %126
!ped! D2!ped-up! CB, ^A,^G, | %127
 [F,,^A,]!ped!F,,,/4F,,/4F,,,/4F,,/4 F,,,/4F,,/4F,,,/4F,,/4F,,,!ped-up! (3[E,A,]/[^E,B,]/[F,D]/[^G,D]/4[A,E]/4[B,=F]/4C/4 | %128
!ped! D2!ped-up! CB, ^A,^G, | %129
 [F,,^A,]!ped!F,,,/4F,,/4F,,,/4F,,/4 F,,,/4F,,/4F,,,/4F,,/4F,,,!ped-up! (3[E,A,]/[^E,B,]/[F,D]/[^G,D]/4[A,E]/4[B,=F]/4C/4 | %130
 =G,2!ped! F,!ped-up!E, D,C, | %131
 [F,,E,]2!ped! F,,,/4F,,/4F,,,/4F,,/4F,,,!ped-up! (3[E,^A,]/[^E,B,]/[F,D]/[^G,D]/4[A,E]/4[B,=F]/4C/4 | %132
 =G,2!ped! F,!ped-up!E, D,C, | %133
!ff!"^dimin." [F,,E,]2!ped! F,,,/4F,,/4F,,,/4F,,/4F,,,/4!f!F,,/4F,,,/4F,,/4 F,,,/4F,,/4F,,,/4F,,/4F,,,!ped-up! | %134
!f! D,C,!ped! F,,,/4F,,/4F,,,/4F,,/4F,,,/4F,,/4F,,,/4F,,/4 F,,,/4F,,/4F,,,/4F,,/4F,,,!ped-up! | %135
!mf! D,C,!mf!!>(!!ped! F,,,/4F,,/4F,,,/4F,,/4F,,,/4F,,/4F,,,/4F,,/4 F,,,/4F,,/4F,,,/4F,,/4F,,,/4F,,/4F,,,/4F,,/4!>)! | %136
 F,,,!ped-up! z [F,,F,]4 | [G,,=F,]4!p! [^G,,E,-]2 |!p! [A,,E,] z [E,,E,]4 | %139
 [=F,,_E,]4 [^F,,D,-]2 |!p! [G,,D,] z!pp!!<(! [D,,D,]4!<)! |!>(! C,6!>)! | %142
!pp! [F,,C,]4- [F,,C,] z | [G,,B,,]4- [G,,B,,] z | [E,,B,,]4- [E,,B,,] z | %145
!ppp! [F,,^A,,]4- [F,,A,,] z | %146
!p! (3[B,,,B,,]!<(![B,,,B,,][B,,,B,,]- (3[B,,,B,,]!mp![B,,,B,,][B,,,B,,]- (3[B,,,B,,][B,,,B,,][B,,,B,,]-!<)! | %147
 (3[B,,,B,,][B,,,B,,][B,,,B,,]- (3[B,,,B,,][B,,,B,,][B,,,B,,]- (3[B,,,B,,]!mf![B,,,B,,][B,,,B,,]- | %148
 (3[B,,,B,,][B,,,B,,][B,,,B,,]- (3[B,,,B,,][B,,,B,,][B,,,B,,]- (3[B,,,B,,][B,,,B,,][B,,,B,,]- | %149
 (3[B,,,B,,][B,,,B,,][B,,,B,,]- (3[B,,,B,,][B,,,B,,][B,,,B,,]- (3[B,,,B,,][B,,,B,,][B,,,B,,]- | %150
 (3[B,,,B,,][B,,,B,,][B,,,B,,]- (3[B,,,B,,][B,,,B,,][B,,,B,,]- (3[B,,,B,,][B,,,B,,][B,,,B,,]- | %151
 (3[B,,,B,,][B,,,B,,][B,,,B,,]- (3[B,,,B,,][B,,,B,,][B,,,B,,]- (3[B,,,B,,][B,,,B,,][B,,,B,,]- | %152
 (3[B,,,B,,][B,,,B,,][B,,,B,,]- (3[B,,,B,,][B,,,B,,][B,,,B,,]- (3[B,,,B,,][B,,,B,,][B,,,B,,]- | %153
 (3[B,,,B,,][B,,,B,,][B,,,B,,]- (3[B,,,B,,][B,,,B,,][B,,,B,,]- (3[B,,,B,,][B,,,B,,][B,,,B,,]- | %154
 (3[B,,,B,,][B,,,B,,][B,,,B,,]- (3[B,,,B,,] x x!<(! F,,2!<)! |!f! [E,,G,,]6 |!f! F,,6 | %157
!f! [E,,G,,]6 |!f! F,,6 |!mp!"^diminuendo" [C,,G,,]4 [D,,F,,]2 |!p! [E,,G,,]4 [D,,F,,]2 | %161
 [C,,E,,]6 | D,,6 |!mp! [C,,E,,]6 |!p! D,,6 |!mp! [C,,E,,]6 |!p! D,,6- | D,,6- | D,,6- | D,,6- | %170
 D,,4- D,, z |] %171
V:3
 x6 | [F,^A,]4- [F,A,] z | x6 | [F,^A,]4- [F,A,] z | x6 | x6 | x6 | x6 | [A,D]3 x x2 | %9
[K:treble] E2 ^D x x2 | ^G2 F x F^E | [B,F]6- | [B,F] z [A,B,D]2- [A,B,D]2 | %13
[K:bass] [^G,B,]2 [=G,B,]2 F,=F, | [E,B,] z x4 | x6 | x4[K:treble] x2 | x6 |[K:bass] x6 | x6 | %20
 [F,^A,]4- [F,A,] z | x6 | [F,^A,]4- [F,A,] z | x6 | x6 | x6 | x6 | x6 | x6 | x6 | x6 | %31
 z2 z2 E,,,2- | E,,,6 | E,,,6 | E,,,6- | E,,,4- E,,, z | x6 | x4 [D,,D,]2 | [E,,E,]4 [G,,G,]2 | %39
 [G,,G,]2 [F,,F,]2 [=F,,=F,]2 | [E,,E,]4 [G,,G,]2 | [G,,G,]2 [F,,F,]2 [E,,E,]2 | %42
 [^D,,^D,]2 [E,,E,]2 [C,,C,]2 | [C,,C,]2 [^D,,^D,]2 [F,,F,]2 | [G,,G,]4 [G,,G,]2 | %45
 [G,,G,]4 [F,,F,]2 | [E,,E,]4 [^E,,^E,]2 | [F,,F,]4 [F,,B,,]2 | [E,,E,]4 [^E,,^E,]2 | %49
 [F,,F,]4 [F,,=C,]2 | [G,,B,,]4 [^G,,B,,]2 | [A,,C,]4 [^A,,C,]2 | [B,,D,]4 [B,,D,]2 | %53
 [=C,E,]2 [^C,E,]2 [D,F,A,]2 | [E,,E,]4 [G,,G,]2 | [G,,G,]2 [F,,F,]2 [=F,,=F,]2 | %56
 [E,,E,]4 [G,,G,]2 | [G,,G,]2 [F,,F,]2 [E,,E,]2 | [^D,,^D,]2 [E,,E,]2 [C,,C,]2 | %59
 [C,,C,]2 [^D,,^D,]2 [F,,F,]2 | [G,,G,]4 [G,,G,]2 | [G,,G,]4 [F,,F,]2 | [E,,E,]4 [^E,,^E,]2 | %63
 D,2 C,2 [F,,B,,]2 | [E,,E,]4 [^E,,^E,]2 | D,2 C,2 [F,,B,,]2 | F,2 E,2 [^G,,B,,D,]2 | %67
 ^G,2 F,2 [^A,,C,E,]2 | A,2 G,2 [B,,D,=F,]2 | B,2 A,2 [C,E,G,]2 | [D,,D,]6- | [D,,D,] z z2 z2 | %72
 [=C,,=C,]6- | [C,,C,] z z2 z2 | [E,,E,]6- | [E,,E,] z z2 z2 | x6 | x6 | x6 | x241/40 | x6 | x6 | %82
 ^A,,6 | B,,2 z2 z2 | ^E,,6 | F,,2 z2 x2 | x6 | x6 | x6 | x6 | [F,^A,]4- [F,A,] z | x6 | %92
 [F,^A,]4- [F,A,] z | x6 | x6 | x6 | x6 | [G,,D,]4 G,,2 | [F,,E,]6 | E,,6 | !arpeggio!E,,6- | %101
 E,,4- E,, z | x6 | x6 | [F,^A,]4- [F,A,] z | x6 | [F,^A,]4- [F,A,] x | !arpeggio![E,B,]2 x4 | %108
 D,3 =C, x2 | [A,E]2 x4 | G,3 =F, x2 | [D,E]4 [=C,=A,]2 | [=C,^G,]2 [B,,=G,]4 | z4 [G,,C,]2 | %114
 [=F,,D,]2 [E,,D,]2 z E,,,/4E,,/4E,,,/ | E,, E,,2 E,,2 E,,- | E,, E,,2 E,,2 E,,- | %117
 E,, E,,2 E,,2 E,,- | E,, E,,2 E,,2 E,,- | E,, E,,2 E,,2 E,,- | E,, E,,2 E,,2 E,,- | %121
 E,, E,,2 E,,2 E,,- | E,, E,,2 E,,2 E,,- | E,, E,,2 E,,2 E,, | ^E,, E,,2 E,,2 E,, | x6 | %126
 z F,,,/4F,,/4F,,,/ z2 z2 | x6 | z F,,,/4F,,/4F,,,/ z2 z2 | x6 | z F,,,/4F,,/4F,,,/ z2 z2 | %131
 B,,^A,, x4 | z F,,,/4F,,/4F,,,/ z2 z2 | B,,^A,, x4 | F,,2 x4 | F,,2 x4 | x6 | x6 | x6 | x6 | x6 | %141
 E,,4 ^E,,2 | x6 | x6 | x6 | x6 | x6 | x6 | x6 | x6 | x6 | x6 | x6 | x6 | %154
 x2 (3x B,,,B,,,- (3B,,,B,,,B,,,- | (3B,,,!mf!B,,,B,,,- (3B,,,B,,,B,,,-!mp! (3B,,,B,,,B,,,- | %156
 (3B,,,!mf!!>(!B,,,B,,,- (3B,,,B,,,B,,,-!>)! (3B,,,B,,,B,,,- | %157
 (3B,,,!mf!!>(!B,,,B,,,- (3B,,,B,,,B,,,-!>)! (3B,,,B,,,B,,,- | %158
 (3B,,,!mf!!>(!B,,,B,,,- (3B,,,B,,,B,,,-!mp! (3B,,,!p!B,,,!>)!B,,,- | %159
 (3B,,,!p!B,,,B,,,- (3B,,,!pp!B,,,B,,,- (3B,,,B,,,B,,,- | %160
 (3B,,,!pp!B,,,B,,,- (3B,,,B,,,B,,,- (3B,,,B,,,B,,,- | %161
 (3B,,,B,,,B,,,- (3B,,,B,,,B,,,- (3B,,,B,,,B,,,- | %162
 (3B,,,!pp!B,,,B,,,- (3B,,,B,,,B,,,- (3B,,,B,,,B,,, | %163
 (3B,,,!pp!B,,,B,,,- (3B,,,B,,,B,,,- (3B,,,B,,,B,,,- | %164
 (3B,,,!pp!!<(!B,,,B,,,- (3B,,,B,,,B,,,- (3B,,,B,,,B,,,-!<)! | %165
 (3B,,,!pp!!>(!B,,,B,,,- (3B,,,B,,,B,,,- (3B,,,B,,,B,,,-!>)! | %166
 (3B,,,!pp!B,,,B,,,-"^diminuendo" (3B,,,B,,,B,,,- (3B,,,B,,,B,,, | %167
 (3B,,,B,,,B,,,- (3B,,,B,,,B,,,- (3B,,,B,,,B,,,- | B,,,2!ppp! B,,,4 | B,,,4 B,,,2- | %170
 B,,,4- B,,, z |] %171
V:4
 x6 | x6 | x6 | =E4- E z | F2 E x x2 | E2 D2 A2 | A2 ^G z z2 | ^G2 F2 c2 | [Fd]3 x [Ec]2 | %9
 [Af]3 x [^Ge]2 | [ca]3 x [c^gc']2 | [dfd']6- | [dfd'] z [Bd]2- [Bd] z | [^EB]2 [=EB] z ^D2 | %14
 E z x4 | x6 | x2 E7/2 D/ | C4- C z | x6 | x6 | x6 | x6 | =E4- E z | F2 E x x2 | E2!pp! D4 | %25
[K:bass] [G,E]3 x x2 | [F,D]4- [F,D] z | [E,C]3 x x2 | [D,B,]4- [D,B,] x | [B,,G,]6- | %30
 [B,,G,]4- [B,,G,] z | x6 | x6 | B,,6- | B,,2!pp! _B,,2 A,,2- | A,,4- A,, z |[K:treble] x6 | x6 | %38
 G4 x2 | x6 | G4 x2 | (3z A,A,- (3A,A,A, x2 | B4 x2 | x6 | B4 x2 | B2!p! _B2 (3B!pp!AA | %46
 (3AAA- (3AAA (3A^GG | (3z!pp! [A,A][A,A]- (3[A,A]!pp![A,A][A,A] (3AAA | %48
 (3A!pp!AA- (3A!pp!AA (3A!pp!^GG | (3z!pp! [A,A][A,A]- (3[A,A]!pp![A,A][A,A] (3AAA | %50
 (3x!pp! [B,B][B,B] (3z!pp! [B,B][B,B] (3z [B,B][B,B] | %51
 (3z!p! [Cc][Cc] (3z!p! [Cc][Cc] (3z [Cc][Cc] | (3z!mp! [Dd][Dd] (3z!mp! [Dd][Dd] (3z [Dd][Dd] | %53
 (3z!mf! [Ee][Ee] (3z!mp! [Ee][Ee] x2 | [dd']2 [cc']2 [Bcb]2 | x6 | [dd']2 [cc']2 [Bcb]2 | x6 | %58
 [ff']2 [ee']2 [ge'g']2 | x6 | x6 | [ee']4 (3_b!mf!a[Aa] | %62
 (3z [Aa][Aa] (3z!mf! [Aa][Aa] (3z!mf! [^G^g][Gg] | d2 c2 (3z!mf! [Aa][Aa] | %64
 (3z!mp! [Aa][Aa] (3z!mp! [Aa][Aa] (3z!mp! [^G^g][Gg] | A2 c2 (3z!mp! [Aa][Aa] | %66
 (3z!mp! [Bb][Bb] (3z [Bb][Bb] (3z!mp! [Bb][Bb] | %67
 (3z!mp! [cc'][cc'] (3z!mp! [cc'][cc'] (3z!mp! [cc'][cc'] | %68
 (3z!mp! [dd'][dd'] (3z!mp! [dd'][dd'] (3z!mp! [dd'][dd'] | %69
 (3z [ee'][ee'] (3z [ee'][ee'] (3z [ee'][ee'] | x6 | x6 | x6 | x6 | x6 | x6 | x6 | x6 | x6 | %79
 x4[K:bass] x81/40 | x[K:treble] x5 | x6 | [Gg]2 [Ff]2 [Ee]2 | cB z2 x2 | G6 | GF z2 x2 | FE x4 | %87
 ED x4 | x6 | x6 | x6 | x6 | =E4- E z | F2 E x x2 | E2!pp!!>(! D4!>)! |[K:bass] [G,E]3 x x2 | %96
 [F,D]4- [F,D] z | x4[K:treble] x2 | B,2 ^A,4 | F2 E4 | G2 F4- | F4- F z | z F, x4 | x6 | x6 | x6 | %106
 =E4- E x | x2 [GB]2 [GA]2 | x2 [Gg]>[Ff] [FB]2 | x2 [=ce]2 [c=d]2 | x2 [cc']>[Bb] [Be]2 | %111
 [ee'][dd'] [=c=g=c'][B^gb] [=f=f'][ee'] | [dbd'][=ca=c'] [gg'][=f=f'] [eae'][dbd'] | %113
!8va(! [aa'][gg'] [=f=f'][ee'] [_b_b'][aa'] | [gg'][=f=f'] [=c'=c''][bb'] [aa'][^g^g'] | x6 | %116
 x2 [aa'][gg'] [=f=f'][ee'] | x6!8va)! | x2 [ff'][ee'] [dd'][cc'] | x6 | x2 [dd'][cc'] [Bb][^A^a] | %121
 x6 | x2 [Bb][Aa] [Gg][Ff] | x4 [Gg][Ff] | G4 G2 | x6 | x6 | [=EF]2 x4 | x6 | [=EF]2 x4 | x6 | %131
 C2 x4 | x6 | x6 | [G,B,]2 x4 | B,2 x4 | x2[K:bass] x4 | x6 | x6 | x6 | x6 | x6 | x6 | x6 | x6 | %145
 x6 |[K:treble] x6 | !arpeggio![G,=CE]4 B,2 | B,2!f! ^A,2 =A,2 | !arpeggio![G,=CE]4 B,2 | %150
 B,2!f! ^A,2 =A,2 |[K:bass] !arpeggio![C,G,B,]4 [D,F,]2 | [E,G,^A,]4 [D,F,]2 | [C,E,G,]6 | %154
 D,2- D, z x2 | [=C,E,]4 B,,2 | B,,2 ^A,,2 =A,,2 | [=C,E,]4 B,,2 | x6 | x6 | x6 | x6 | x6 | x6 | %164
 x6 | x6 | x6 | x6 | x6 | x6 | x6 |] %171
V:5
 x6 | x6 | x6 | x6 | x6 | x6 | x6 | x6 | x6 |[K:treble] x6 | x6 | x6 | x6 |[K:bass] x6 | x6 | x6 | %16
 x4[K:treble] x2 | x6 |[K:bass] x6 | x6 | x6 | x6 | x6 | x6 | x6 | x6 | x6 | x6 | x6 | x6 | x6 | %31
 x6 | x6 | x6 | x6 | x6 | x6 | x6 | x6 | x6 | x6 | x6 | x6 | x6 | x6 | x6 | x6 | x6 | x6 | x6 | %50
 x6 | x6 | x6 | x6 | x6 | x6 | x6 | x6 | x6 | x6 | x6 | x6 | x6 | F,,4 x2 | x6 | F,,4 x2 | %66
 [G,,B,,]4 x2 | [A,,C,]4 x2 | [B,,D,]4 x2 | [A,,C,]4 x2 | x6 | x6 | x6 | x6 | x6 | x6 | x6 | x6 | %78
 x6 | x241/40 | x6 | x6 | x6 | x6 | x6 | x6 | x6 | x6 | x6 | x6 | x6 | x6 | x6 | x6 | x6 | x6 | %96
 x6 | x6 | x6 | x6 | B,,7/2 ^A,,/ A,,2- | A,,4- A,, z | x6 | x6 | x6 | x6 | x6 | x6 | x6 | x6 | %110
 x6 | x6 | x6 | x6 | x6 | x6 | x6 | x6 | x6 | x6 | x6 | x6 | x6 | x6 | x6 | x6 | x6 | x6 | x6 | %129
 x6 | x6 | x6 | x6 | x6 | x6 | x6 | x6 | x6 | x6 | x6 | x6 | x6 | x6 | x6 | x6 | x6 | x6 | x6 | %148
 x6 | x6 | x6 | x6 | x6 | x6 | x6 | x6 | x6 | x6 | x6 | x6 | x6 | x6 | x6 | x6 | x6 | x6 | x6 | %167
 x6 | x6 | x6 | x6 |] %171

